public/avatar/hat/178.svg

<svg xmlns:xlink="http://www.w3.org/1999/xlink" height="92.9" width="100.7" xmlns="http://www.w3.org/2000/svg"><use height="32.35" transform="translate(19.25 38.7)" width="40.35" xlink:href="#a"/><defs><g id="a" fill-rule="evenodd"><path d="m9-10.45.65.05q1.1 1.1 2.75 1.1l-.1.05q.4-.2.65.15l.1.3-.05.1-.15.3-2.4 1.95 4.2-.55 3.4-.4.55.15.1.35-.05.2-.2.4Q17.8-4.85 16.2-4q2.5.5 4.65 2.7l.1.35v.25q-.2.3-.5.3-.35 0-1.95.8-3.1 1.55-4.75 1.6 1.25 1.15 3.8 1.25l.5.4v.15l-.25.45q-5.3 3.1-11.4-.4l-.15-.15q-.85-1.35-4.2-1.75Q-2.8 1.35-8.4 4.9q-4.8 3.15-8.9 1.3-.3-.05-.3-.45V5.7q0-.35.4-.45 1.65-.4 3.05-1.35l-1.7-.55-2.95-.3q-.3 0-.5-.2l-.1-.3v-.2q.9-2.45 3.45-3.8-2.2-.25-3.2-1.35l-.1-.35.05-.2.5-.3 1.55-.05q1.95-.25 3.9-.95-1.7-.75-2.9-2.1l-.1-.35.05-.25q.25-.35.6-.25l4.95.15 5.3.35-1-1.65-.05-.3.05-.2.4-.3 3.8-1.2.1-.05q.45-.1.95 1.1 1 2.6 1.8 4l.35-2.7v-.2q0-.35.35-.45 2.75-1.15 4.1-2l.65.05.15.35-.05.3q-.55.8-1.35 3.7 2.7-2.8 4.1-3.8" fill="#160249" transform="translate(19.4 11.05)"/><path d="M4.65-9.4q-.6 1.25-.85 4.7 3.3-3.1 5.55-4.7.55.45 1.95.9L8.2-5.15q3-1.25 9.05-1.05-.4.7-3.9 2.8l1.85-.15q2.25.3 4.2 2.4-2.85 2.3-7 2.2Q12.25 2.1 13.75 3q1.25.75 2.55.85-3.65 2.4-9.6-.45Q5.5 1.65 2.65.9q-4.7-1.25-10.5 2.4-4.4 2.9-7.8 2.35 1.8-.85 3.45-2.55-1.65.05-3.2-.65-1.45-.65-2.8-.4 2.15-3.55 7.3-3.9-4.45.2-6.55-.95l1.45-.15q1.95-.4 4.4-1.55-1.65-.65-2.85-2l6.1-.05q3.55-.1 4.75 1.7L-5.05-8.7l2.85-.95 1.2 2.2Q.35-4.9 1-4.5l1-3.7 2.65-1.2" fill="#6efff3" transform="translate(19.4 11.05)"/><path d="M4.1-7.45v.4l-.25 1.8q-.4 2.2-.8 2.9l2.45-1.8L8.95-6.2 8.2-5.15h.05Q6.6-3.15 6.6-2.4l1.25-.65 2.2-.45 5-1q-4.7 2.45-4.85 4.1l5.65-1 3.5.25q-2.8 2.3-6.95 2.2Q12.25 2.1 13.75 3q1.25.75 2.55.85-3.65 2.4-9.6-.45Q5.5 1.65 2.65.9q-4.7-1.25-10.5 2.4-4.4 2.9-7.8 2.35 1.8-.85 3.45-2.55l-2.85-.45q-1.4-.6-2-.65l-.25-.15 3.65-.3q.7-.2 2.8-1.75.8-.6 3.3-1.1-1.75-1.05-3.5-.9 2.1-1.1 3.45-1.1 1.65 0 2.9.8l-.1-1.15Q-5.2-5.6-6.2-6.3q1 0 2.1.9l.5.55-.1-.25q1.1.9 2.7 3.3.7-.6.55-2.15-1.5-3.55-.85-3.75.05.45 1 1.55l1.1 1.6q.45.65.45 2.05l-.2.45.2.1v-.55Q2.2-4.75 4.1-7.45" fill="#1bc4b6" transform="translate(19.4 11.05)"/><path d="M-6.3 3.3q.35.35-.15 1.7-.9 2.4-.65 3.05.1.4-.2.6-2.3 1.45-2.7 5.7-.35 3.45.55 6.3l-.1.45q-.2.2-.4.2-2.2-.1-3.3-1.5-4.85.2-5.55-3.6-.1-.4.35-.6 2.15-.55 4-4.55 2.7-6.1 7.5-7.85l.65.1" fill="#160249" transform="translate(19.4 11.05)"/><path d="M-7.55 8.2q-2.5 1.6-3.2 5.7-.6 3.55.3 6.45-1.5-.1-2.1-.75l-.3-.65q-4.3.4-4.85-2.7 2.55-1.35 4.5-6.15 1.85-4.5 6.45-6.45.25-.1-.35 1.6-.75 2.1-.45 2.95" fill="#6efff3" transform="translate(19.4 11.05)"/><path d="M-6.75 3.65q.25-.1-.35 1.6-.75 2.1-.45 2.95-1.7 1.1-2.65 3.55-1.6 4.35-.25 8.6-1.5-.1-2.1-.75l-.3-.65h-1.35q1.85-5.3 2.9-7.65l-2-1q2-4.7 6.55-6.65" fill="#1bc4b6" transform="translate(19.4 11.05)"/><path d="M5.9 2.7q.15-.3.65-.15 4.85 1.8 7.55 7.85 1.7 4 4 4.6.45.1.35.6-.8 3.8-5.55 3.55-1.1 1.4-3.3 1.5-.3 0-.45-.2Q9 20.3 9.1 20q.9-2.85.6-6.3Q9.25 9.45 6.95 8q-.35-.2-.2-.6.25-.7-.65-3-.5-1.4-.2-1.7" fill="#160249" transform="translate(19.4 11.05)"/><path d="M10.4 13.25q-.7-4.1-3.2-5.65.3-.85-.45-2.95-.65-1.7-.35-1.6Q11 5 12.85 9.5q1.95 4.75 4.5 6.1-.55 3.15-4.85 2.75 0 1.25-2.4 1.35.9-2.9.3-6.45" fill="#6efff3" transform="translate(19.4 11.05)"/><path d="m11.65 7.1 2.05 4.5-.4.2q.9 2.7 3.45 5.15-1.15 1.65-4.25 1.4l-.45.75q.35-3.9-1.2-6.8h-.65q-.8-3.4-3-4.7.3-.85-.45-2.95-.65-1.7-.35-1.6 3.55 1.5 5.25 4.05" fill="#1bc4b6" transform="translate(19.4 11.05)"/><path d="M9 1.5q3 2.3 3.7 5.8l-.25.55-.6-.1-.15-.1Q6.2 2.1.2 2.1q-6.25 0-12.2 6l-.65.05q-.3-.2-.2-.6 1.9-4.9 6.45-7.2 3.8-1.9 8.15-1.55Q6-.8 9 1.5" fill="#03102a" transform="translate(19.4 11.05)"/><path d="M8.05 1.75q3.3 2.1 4.15 5.65-12.35-11.9-24.55.35 1.65-4 5.45-6.2Q-3.4-.4.8-.3q4.15.05 7.25 2.05" fill="#0075d6" transform="translate(19.4 11.05)"/><path d="M-10.65-1.3q-2.55 1.55-4 2l-1.55.3q-1.1.2-1.35.6h-.1q.4-1.65 2.95-2.5 2.25-.75 4.05-.4m-.15-5.1h4.4v.1l-4.05.85q-1.7.35-3.8-1l3.45.05m-6.4 3.6q1.8-.2 4.55-1.1-2.55 2.35-4.55 1.1m14-6.15 1 2.5.15.9.5 2.35-1.9-2.35q-1.1-1.4-1.2-2.8.5-.15.65-.6l.8 2.15v-2.15m7.15.15Q3.3-7 1.35-3.65l-.15-.9L2.25-7.1l1.7-1.7m5.3-.5.5.2-1.3 1.05-2.4 2.1q-.8.6-1.7 1.95l.2-.8q.7-1.25 3.05-3.1l1.65-1.4" fill="#ffe6ff" transform="translate(19.4 11.05)"/><path d="M-10.3-4.95h.25q5.3.85 8.05 3.9l.05.1q.9 1.7-1.35 2.8l-.35.05q-2.6-1.5-9.55-.8l-.4-.15-.15-.35.35-2.3q.8-2.45 3.1-3.25" fill="#03102a" transform="translate(19.4 11.05)"/><path d="M-2.5-.3q.65 1.2-.65 1.5Q-6.9-.2-12.75.1l.35-1.65q.65-1.75 2.3-2.4 1-.15 3.55.85Q-3.6-1.9-2.5-.3" fill="#0075d6" transform="translate(19.4 11.05)"/><path d="m-2.5-.3.05.05Q-6.1-2.7-12.55-1.2q.65-2 2.45-2.75 1-.15 3.55.85Q-3.6-1.9-2.5-.3" fill="#b2caff" transform="translate(19.4 11.05)"/><path d="M9.4-5.4h.25Q13.3-4.1 13.1.2l-.15.35-.35.1q-7.25-.5-9.6.8l-.35-.05Q.5.25 1.3-1.4l.1-.1q2.7-3.05 8-3.9" fill="#03102a" transform="translate(19.4 11.05)"/><path d="M1.85-.7Q3-2.3 5.95-3.5q2.55-1.05 3.5-.9Q12.1-3.35 12.1-.35 6.4-.65 2.5.8 1.2.45 1.85-.7" fill="#0075d6" transform="translate(19.4 11.05)"/><path d="M9.45-4.4q1.4.6 2.1 1.9Q7.25-3.9 1.7.1q-.1-.4.15-.8Q3-2.3 5.95-3.5q2.55-1.05 3.5-.9" fill="#b2caff" transform="translate(19.4 11.05)"/><path d="m-4.2-2.55 3.7.15Q3.15-4 4.1-2.65q1.25 1.7-.85 4.1-.8.9-5.5.4-1.65-.35-2.3-2.6-.3-1.2.35-1.8" fill="#03102a" transform="translate(19.4 11.05)"/><path d="M-3.85-.7q-.5-2.15 3.5-.6Q3.4-3.5 3.6-1.35 3.8.75 2.05 1.7h-3.5q-1.9 0-2.4-2.4" fill="#0075d6" transform="translate(19.4 11.05)"/><path d="M3.6-1.15q-.15.55-3.55.4-3.4-.2-3.55.85-.75-1.2-.1-1.75.75-.65 3.25.35 3.95-2.25 3.95.15" fill="#b2caff" transform="translate(19.4 11.05)"/><path d="m13.35 9.75-.05.5-.45.2-7.05-.05-.7-.9Q3.8 6.9 2.25 6.25q-.35.95-.35 2l.2 1.8v.1l-.35.5-3 .2q-2.8-.05-3.65-.85h-1.15l-6.65.05-.3-.3-.05-.45Q-9.9.5.7.65q9 0 12.65 9.1" fill="#160249" transform="translate(19.4 11.05)"/><path d="m1.05 9.75-2.9.15q-2.3-.1-2.7-.85l-7.3.05Q-9.4 1.75.45 1.65q7.7 0 11.85 7.8H6.2Q4.5 6.15 2 5.55q-1.15.85-.95 4.2" fill="#6efff3" transform="translate(19.4 11.05)"/><path d="m10.65 6.85-1.55.1-.85-2.1L7.5 3.8q1.75 1.25 3.15 3.05" fill="#6efff3" transform="translate(19.4 11.05)"/><path d="m10.65 6.85 1.65 2.6H6.2Q4.5 6.15 2 5.55q-.4.4-.7 1.45-.3 1.35-.25 2.75l-2.9.15q-2.3-.1-2.7-.85l-7.3.05.8-1.95 5.85.2q.9-1.75 2.55-3l-1.25 2.7 4.1.5q.85-2.5 1.5-3.45 2.65 1.65 3.9 3.1l3.2.4q1.5 0 1.85-.75" fill="#1bc4b6" transform="translate(19.4 11.05)"/><path d="M-3.75 6.4q-.5 1.35-.6 2.9-.05.2-.25-.15 0-1.75.85-2.75m2.95-.2q-.7 1.8-.65 3.9-.05.3-.3-.2 0-2.75.95-3.7m9.6 3.3q-.45-1.9-1.9-3.4 1.9 1.55 2.4 3.45l-.5-.05m-18.05-.2-.45.05q.45-1.9 2.35-3.45-1.45 1.55-1.9 3.4m-3.6 9.8q.2.1-.4.25-.2-2 1.1-4.05-.85 1.8-.7 3.8m25.35-.65q.1-2-.7-3.8 1.3 2.1 1.1 4.05-.6-.1-.4-.25" fill="#160249" transform="translate(19.4 11.05)"/><path d="M-3.4 3.8q.4-.05 2.75.75-4.3-.2-5.35.65.1-.65-.05-1.05-.6.05-1.25 1.1l.4-1.2-2.2 1.2q.9-1.1 2.65-2.05 1.85-.9 3.15-.85-1.55.4-1.95 1.3l1.85.15m9.15-.65q1.35.5 2.95 1.7l-.45-.05-1.8-.7.95 1-2.55-.25-4.3-.55 1.65-.2 1.95.1q-.75-.55-1-.85l2.65.95L3 2.35l2.75.8M-14.4 13.5q1.05-1.6 1.2-2.45.3 1.3-.6 4.5-.95 3.6-2.4 2.8 1.55-2.65 2.05-4.1-.95 1.7-2.55 2.35l-.25-.3q.85-.35 2.55-2.8m25.2 1.75-.15-2.35q1.55 5.25-.3 6.45l.25-.4.2-3.7" fill="#ffe6ff" transform="translate(19.4 11.05)"/></g></defs></svg>

<?xml version="1.0" encoding="UTF-8" standalone="no"?>
<svg xmlns:xlink="http://www.w3.org/1999/xlink" height="92.9px" width="100.7px" xmlns="http://www.w3.org/2000/svg">
  <g transform="matrix(1.0, 0.0, 0.0, 1.0, 38.65, 49.75)">
    <use height="32.35" transform="matrix(1.0, 0.0, 0.0, 1.0, -19.4, -11.05)" width="40.35" xlink:href="#shape0"/>
  </g>
  <defs>
    <g id="shape0" transform="matrix(1.0, 0.0, 0.0, 1.0, 19.4, 11.05)">
      <path d="M9.0 -10.45 L9.65 -10.4 Q10.75 -9.3 12.4 -9.3 L12.3 -9.25 Q12.7 -9.45 12.95 -9.1 L13.05 -8.8 13.0 -8.7 12.85 -8.4 10.45 -6.45 14.65 -7.0 18.05 -7.4 18.6 -7.25 18.7 -6.9 18.65 -6.7 18.45 -6.3 Q17.8 -4.85 16.2 -4.0 18.7 -3.5 20.85 -1.3 L20.95 -0.95 20.95 -0.7 Q20.75 -0.4 20.45 -0.4 20.1 -0.4 18.5 0.4 15.4 1.95 13.75 2.0 15.0 3.15 17.55 3.25 L18.05 3.65 18.05 3.8 17.8 4.25 Q12.5 7.35 6.4 3.85 L6.25 3.7 Q5.4 2.35 2.05 1.95 -2.8 1.35 -8.4 4.9 -13.2 8.05 -17.3 6.2 -17.6 6.15 -17.6 5.75 L-17.6 5.7 Q-17.6 5.35 -17.2 5.25 -15.55 4.85 -14.15 3.9 L-15.85 3.35 -18.8 3.05 Q-19.1 3.05 -19.3 2.85 L-19.4 2.55 -19.4 2.35 Q-18.5 -0.1 -15.95 -1.45 -18.15 -1.7 -19.15 -2.8 L-19.25 -3.15 -19.2 -3.35 -18.7 -3.65 -17.15 -3.7 Q-15.2 -3.95 -13.25 -4.65 -14.95 -5.4 -16.15 -6.75 L-16.25 -7.1 -16.2 -7.35 Q-15.95 -7.7 -15.6 -7.6 L-10.65 -7.45 -5.35 -7.1 -6.35 -8.75 -6.4 -9.05 -6.35 -9.25 -5.95 -9.55 -2.15 -10.75 -2.05 -10.8 Q-1.6 -10.9 -1.1 -9.7 -0.1 -7.1 0.7 -5.7 L1.05 -8.4 1.05 -8.6 Q1.05 -8.95 1.4 -9.05 4.15 -10.2 5.5 -11.05 L6.15 -11.0 6.3 -10.65 6.25 -10.35 Q5.7 -9.55 4.9 -6.65 7.6 -9.45 9.0 -10.45" fill="#160249" fill-rule="evenodd" stroke="none"/>
      <path d="M4.65 -9.4 Q4.05 -8.15 3.8 -4.7 7.1 -7.8 9.35 -9.4 9.9 -8.95 11.3 -8.5 L8.2 -5.15 Q11.2 -6.4 17.25 -6.2 16.85 -5.5 13.35 -3.4 L15.2 -3.55 Q17.45 -3.25 19.4 -1.15 16.55 1.15 12.4 1.05 12.25 2.1 13.75 3.0 15.0 3.75 16.3 3.85 12.65 6.25 6.7 3.4 5.5 1.65 2.65 0.9 -2.05 -0.35 -7.85 3.3 -12.25 6.2 -15.65 5.65 -13.85 4.8 -12.2 3.1 -13.85 3.15 -15.4 2.45 -16.85 1.8 -18.2 2.05 -16.05 -1.5 -10.9 -1.85 -15.35 -1.65 -17.45 -2.8 L-16.0 -2.95 Q-14.05 -3.35 -11.6 -4.5 -13.25 -5.15 -14.45 -6.5 L-8.35 -6.55 Q-4.8 -6.65 -3.6 -4.85 L-5.05 -8.7 -2.2 -9.65 -1.0 -7.45 Q0.35 -4.9 1.0 -4.5 L2.0 -8.2 4.65 -9.4" fill="#6efff3" fill-rule="evenodd" stroke="none"/>
      <path d="M4.1 -7.45 L4.1 -7.05 3.85 -5.25 Q3.45 -3.05 3.05 -2.35 L5.5 -4.15 8.95 -6.2 8.2 -5.15 8.25 -5.15 Q6.6 -3.15 6.6 -2.4 L7.85 -3.05 10.05 -3.5 15.05 -4.5 Q10.35 -2.05 10.2 -0.4 L15.85 -1.4 19.35 -1.15 Q16.55 1.15 12.4 1.05 12.25 2.1 13.75 3.0 15.0 3.75 16.3 3.85 12.65 6.25 6.7 3.4 5.5 1.65 2.65 0.9 -2.05 -0.35 -7.85 3.3 -12.25 6.2 -15.65 5.65 -13.85 4.8 -12.2 3.1 L-15.05 2.65 Q-16.45 2.05 -17.05 2.0 L-17.3 1.85 -13.65 1.55 Q-12.95 1.35 -10.85 -0.2 -10.05 -0.8 -7.55 -1.3 -9.3 -2.35 -11.05 -2.2 -8.95 -3.3 -7.6 -3.3 -5.95 -3.3 -4.7 -2.5 L-4.8 -3.65 Q-5.2 -5.6 -6.2 -6.3 -5.2 -6.3 -4.1 -5.4 L-3.6 -4.85 -3.7 -5.1 Q-2.6 -4.2 -1.0 -1.8 -0.3 -2.4 -0.45 -3.95 -1.95 -7.5 -1.3 -7.7 -1.25 -7.25 -0.3 -6.15 L0.8 -4.55 Q1.25 -3.9 1.25 -2.5 L1.05 -2.05 1.25 -1.95 1.25 -2.5 Q2.2 -4.75 4.1 -7.45" fill="#1bc4b6" fill-rule="evenodd" stroke="none"/>
      <path d="M-6.3 3.3 Q-5.95 3.65 -6.45 5.0 -7.35 7.4 -7.1 8.05 -7.0 8.45 -7.3 8.65 -9.6 10.1 -10.0 14.35 -10.35 17.8 -9.45 20.65 L-9.55 21.1 Q-9.75 21.3 -9.95 21.3 -12.15 21.2 -13.25 19.8 -18.1 20.0 -18.8 16.2 -18.9 15.8 -18.45 15.6 -16.3 15.05 -14.45 11.05 -11.75 4.95 -6.95 3.2 L-6.3 3.3" fill="#160249" fill-rule="evenodd" stroke="none"/>
      <path d="M-7.55 8.2 Q-10.05 9.8 -10.75 13.9 -11.35 17.45 -10.45 20.35 -11.95 20.25 -12.55 19.6 L-12.85 18.95 Q-17.15 19.35 -17.7 16.25 -15.15 14.9 -13.2 10.1 -11.35 5.6 -6.75 3.65 -6.5 3.55 -7.1 5.25 -7.85 7.35 -7.55 8.2" fill="#6efff3" fill-rule="evenodd" stroke="none"/>
      <path d="M-6.75 3.65 Q-6.5 3.55 -7.1 5.25 -7.85 7.35 -7.55 8.2 -9.25 9.3 -10.2 11.75 -11.8 16.1 -10.45 20.35 -11.95 20.25 -12.55 19.6 L-12.85 18.95 -14.2 18.95 Q-12.35 13.65 -11.3 11.3 L-13.3 10.3 Q-11.3 5.6 -6.75 3.65" fill="#1bc4b6" fill-rule="evenodd" stroke="none"/>
      <path d="M5.9 2.7 Q6.05 2.4 6.55 2.55 11.4 4.35 14.1 10.4 15.8 14.4 18.1 15.0 18.55 15.1 18.45 15.6 17.65 19.4 12.9 19.15 11.8 20.55 9.6 20.65 9.3 20.65 9.15 20.45 9.0 20.3 9.1 20.0 10.0 17.15 9.7 13.7 9.25 9.45 6.95 8.0 6.6 7.8 6.75 7.4 7.0 6.7 6.1 4.4 5.6 3.0 5.9 2.7" fill="#160249" fill-rule="evenodd" stroke="none"/>
      <path d="M10.4 13.25 Q9.7 9.15 7.2 7.6 7.5 6.75 6.75 4.65 6.1 2.95 6.4 3.05 11.0 5.0 12.85 9.5 14.8 14.25 17.35 15.6 16.8 18.75 12.5 18.35 12.5 19.6 10.1 19.7 11.0 16.8 10.4 13.25" fill="#6efff3" fill-rule="evenodd" stroke="none"/>
      <path d="M11.65 7.1 L13.7 11.6 13.3 11.8 Q14.2 14.5 16.75 16.95 15.6 18.6 12.5 18.35 L12.05 19.1 Q12.4 15.2 10.85 12.3 L10.2 12.3 Q9.4 8.9 7.2 7.6 7.5 6.75 6.75 4.65 6.1 2.95 6.4 3.05 9.95 4.55 11.65 7.1" fill="#1bc4b6" fill-rule="evenodd" stroke="none"/>
      <path d="M9.0 1.5 Q12.0 3.8 12.7 7.3 L12.45 7.85 11.85 7.75 11.7 7.65 Q6.2 2.1 0.2 2.1 -6.05 2.1 -12.0 8.1 L-12.65 8.15 Q-12.95 7.95 -12.85 7.55 -10.95 2.65 -6.4 0.35 -2.6 -1.55 1.75 -1.2 6.0 -0.8 9.0 1.5" fill="#03102a" fill-rule="evenodd" stroke="none"/>
      <path d="M8.05 1.75 Q11.35 3.85 12.2 7.4 -0.15 -4.5 -12.35 7.75 -10.7 3.75 -6.9 1.55 -3.4 -0.4 0.8 -0.3 4.95 -0.25 8.05 1.75" fill="#0075d6" fill-rule="evenodd" stroke="none"/>
      <path d="M-10.65 -1.3 Q-13.2 0.25 -14.65 0.7 L-16.2 1.0 Q-17.3 1.2 -17.55 1.6 L-17.65 1.6 Q-17.25 -0.05 -14.7 -0.9 -12.45 -1.65 -10.65 -1.3" fill="#ffe6ff" fill-rule="evenodd" stroke="none"/>
      <path d="M-10.8 -6.4 L-6.4 -6.4 -6.4 -6.3 -10.45 -5.45 Q-12.15 -5.1 -14.25 -6.45 L-10.8 -6.4" fill="#ffe6ff" fill-rule="evenodd" stroke="none"/>
      <path d="M-17.2 -2.8 Q-15.4 -3.0 -12.65 -3.9 -15.2 -1.55 -17.2 -2.8" fill="#ffe6ff" fill-rule="evenodd" stroke="none"/>
      <path d="M-3.2 -8.95 L-2.2 -6.45 -2.05 -5.55 -1.55 -3.2 -3.45 -5.55 Q-4.55 -6.95 -4.65 -8.35 -4.15 -8.5 -4.0 -8.95 L-3.2 -6.8 -3.2 -8.95" fill="#ffe6ff" fill-rule="evenodd" stroke="none"/>
      <path d="M3.95 -8.8 Q3.3 -7.0 1.35 -3.65 L1.2 -4.55 2.25 -7.1 3.95 -8.8" fill="#ffe6ff" fill-rule="evenodd" stroke="none"/>
      <path d="M9.25 -9.3 L9.75 -9.1 8.45 -8.05 6.05 -5.95 Q5.25 -5.35 4.35 -4.0 L4.55 -4.8 Q5.25 -6.05 7.6 -7.9 L9.25 -9.3" fill="#ffe6ff" fill-rule="evenodd" stroke="none"/>
      <path d="M-10.3 -4.95 L-10.05 -4.95 Q-4.75 -4.1 -2.0 -1.05 L-1.95 -0.95 Q-1.05 0.75 -3.3 1.85 L-3.65 1.9 Q-6.25 0.4 -13.2 1.1 L-13.6 0.95 -13.75 0.6 -13.4 -1.7 Q-12.6 -4.15 -10.3 -4.95" fill="#03102a" fill-rule="evenodd" stroke="none"/>
      <path d="M-2.5 -0.3 Q-1.85 0.9 -3.15 1.2 -6.9 -0.2 -12.75 0.1 L-12.4 -1.55 Q-11.75 -3.3 -10.1 -3.95 -9.1 -4.1 -6.55 -3.1 -3.6 -1.9 -2.5 -0.3" fill="#0075d6" fill-rule="evenodd" stroke="none"/>
      <path d="M-2.5 -0.3 L-2.45 -0.25 Q-6.1 -2.7 -12.55 -1.2 -11.9 -3.2 -10.1 -3.95 -9.1 -4.1 -6.55 -3.1 -3.6 -1.9 -2.5 -0.3" fill="#b2caff" fill-rule="evenodd" stroke="none"/>
      <path d="M9.4 -5.4 L9.65 -5.4 Q13.3 -4.1 13.1 0.2 L12.95 0.55 12.6 0.65 Q5.35 0.15 3.0 1.45 L2.65 1.4 Q0.5 0.25 1.3 -1.4 L1.4 -1.5 Q4.1 -4.55 9.4 -5.4" fill="#03102a" fill-rule="evenodd" stroke="none"/>
      <path d="M1.85 -0.7 Q3.0 -2.3 5.95 -3.5 8.5 -4.55 9.45 -4.4 12.1 -3.35 12.1 -0.35 6.4 -0.65 2.5 0.8 1.2 0.45 1.85 -0.7" fill="#0075d6" fill-rule="evenodd" stroke="none"/>
      <path d="M9.45 -4.4 Q10.85 -3.8 11.55 -2.5 7.25 -3.9 1.7 0.1 1.6 -0.3 1.85 -0.7 3.0 -2.3 5.95 -3.5 8.5 -4.55 9.45 -4.4" fill="#b2caff" fill-rule="evenodd" stroke="none"/>
      <path d="M-4.2 -2.55 L-0.5 -2.4 Q3.15 -4.0 4.1 -2.65 5.35 -0.95 3.25 1.45 2.45 2.35 -2.25 1.85 -3.9 1.5 -4.55 -0.75 -4.85 -1.95 -4.2 -2.55" fill="#03102a" fill-rule="evenodd" stroke="none"/>
      <path d="M-3.85 -0.7 Q-4.35 -2.85 -0.35 -1.3 3.4 -3.5 3.6 -1.35 3.8 0.75 2.05 1.7 L-1.45 1.7 Q-3.35 1.7 -3.85 -0.7" fill="#0075d6" fill-rule="evenodd" stroke="none"/>
      <path d="M3.6 -1.15 Q3.45 -0.6 0.05 -0.75 -3.35 -0.95 -3.5 0.1 -4.25 -1.1 -3.6 -1.65 -2.85 -2.3 -0.35 -1.3 3.6 -3.55 3.6 -1.15" fill="#b2caff" fill-rule="evenodd" stroke="none"/>
      <path d="M13.35 9.75 L13.3 10.25 12.85 10.45 5.8 10.4 5.1 9.5 Q3.8 6.9 2.25 6.25 1.9 7.2 1.9 8.25 L2.1 10.05 2.1 10.15 1.75 10.65 -1.25 10.85 Q-4.05 10.8 -4.9 10.0 L-6.05 10.0 -12.7 10.05 -13.0 9.75 -13.05 9.3 Q-9.9 0.5 0.7 0.65 9.7 0.65 13.35 9.75" fill="#160249" fill-rule="evenodd" stroke="none"/>
      <path d="M1.05 9.75 L-1.85 9.9 Q-4.15 9.8 -4.55 9.05 L-11.85 9.1 Q-9.4 1.75 0.45 1.65 8.15 1.65 12.3 9.45 L6.2 9.45 Q4.5 6.15 2.0 5.55 0.85 6.4 1.05 9.75" fill="#6efff3" fill-rule="evenodd" stroke="none"/>
      <path d="M10.65 6.85 L9.1 6.95 8.25 4.85 7.5 3.8 Q9.25 5.05 10.65 6.85" fill="#6efff3" fill-rule="evenodd" stroke="none"/>
      <path d="M10.65 6.85 L12.3 9.45 6.2 9.45 Q4.5 6.15 2.0 5.55 1.6 5.95 1.3 7.0 1.0 8.35 1.05 9.75 L-1.85 9.9 Q-4.15 9.8 -4.55 9.05 L-11.85 9.1 -11.05 7.15 -5.2 7.35 Q-4.3 5.6 -2.65 4.35 L-3.9 7.05 0.2 7.55 Q1.05 5.05 1.7 4.1 4.35 5.75 5.6 7.2 L8.8 7.6 Q10.3 7.6 10.65 6.85" fill="#1bc4b6" fill-rule="evenodd" stroke="none"/>
      <path d="M-3.75 6.4 Q-4.25 7.75 -4.35 9.3 -4.4 9.5 -4.6 9.15 -4.6 7.4 -3.75 6.4" fill="#160249" fill-rule="evenodd" stroke="none"/>
      <path d="M-0.8 6.2 Q-1.5 8.0 -1.45 10.1 -1.5 10.4 -1.75 9.9 -1.75 7.15 -0.8 6.2" fill="#160249" fill-rule="evenodd" stroke="none"/>
      <path d="M8.8 9.5 Q8.35 7.6 6.9 6.1 8.8 7.65 9.3 9.55 L8.8 9.5" fill="#160249" fill-rule="evenodd" stroke="none"/>
      <path d="M-9.25 9.3 L-9.7 9.35 Q-9.25 7.45 -7.35 5.9 -8.8 7.45 -9.25 9.3" fill="#160249" fill-rule="evenodd" stroke="none"/>
      <path d="M-12.85 19.1 Q-12.65 19.2 -13.25 19.35 -13.45 17.35 -12.15 15.3 -13.0 17.1 -12.85 19.1" fill="#160249" fill-rule="evenodd" stroke="none"/>
      <path d="M12.5 18.45 Q12.6 16.45 11.8 14.65 13.1 16.75 12.9 18.7 12.3 18.6 12.5 18.45" fill="#160249" fill-rule="evenodd" stroke="none"/>
      <path d="M-3.4 3.8 Q-3.0 3.75 -0.65 4.55 -4.95 4.35 -6.0 5.2 -5.9 4.55 -6.05 4.15 -6.65 4.2 -7.3 5.25 L-6.9 4.05 -9.1 5.25 Q-8.2 4.15 -6.45 3.2 -4.6 2.3 -3.3 2.35 -4.85 2.75 -5.25 3.65 L-3.4 3.8" fill="#ffe6ff" fill-rule="evenodd" stroke="none"/>
      <path d="M5.75 3.15 Q7.1 3.65 8.7 4.85 L8.25 4.8 6.45 4.1 7.4 5.1 4.85 4.85 0.55 4.3 2.2 4.1 4.15 4.2 Q3.4 3.65 3.15 3.35 L5.8 4.3 3.0 2.35 5.75 3.15" fill="#ffe6ff" fill-rule="evenodd" stroke="none"/>
      <path d="M-14.4 13.5 Q-13.35 11.9 -13.2 11.05 -12.9 12.35 -13.8 15.55 -14.75 19.15 -16.2 18.35 -14.65 15.7 -14.15 14.25 -15.1 15.95 -16.7 16.6 L-16.95 16.3 Q-16.1 15.95 -14.4 13.5" fill="#ffe6ff" fill-rule="evenodd" stroke="none"/>
      <path d="M10.8 15.25 L10.65 12.9 Q12.2 18.15 10.35 19.35 L10.6 18.95 10.8 15.25" fill="#ffe6ff" fill-rule="evenodd" stroke="none"/>
    </g>
  </defs>
</svg>
